landingpages/spreadsheet-icon.svg

<svg fill="none" height="80" viewBox="0 0 80 80" width="80" xmlns="http://www.w3.org/2000/svg"><circle cx="40" cy="40" fill="#ffe01b" r="40"/><rect fill="#ffe01b" height="41" rx="8.5" stroke="#354793" stroke-width="3" width="37" x="21.5" y="17.5"/><g fill="#354793"><rect height="3" rx="1.5" width="26" x="27" y="26"/><rect height="3" rx="1.5" width="26" x="27" y="46"/><rect height="3" rx="1.5" width="26" x="27" y="36"/></g><circle cx="56" cy="55" fill="#ffe01b" r="11.5" stroke="#354793" stroke-width="3"/><path d="m55.39 56.14v2.25c0 .4971.4029.9.9.9s.9-.4029.9-.9v-2.25c0-.4142.3358-.75.75-.75h2.02c.4805 0 .87-.3895.87-.87s-.3895-.87-.87-.87h-2.02c-.4142 0-.75-.3358-.75-.75v-2.25c0-.4971-.4029-.9-.9-.9s-.9.4029-.9.9v2.25c0 .4142-.3358.75-.75.75h-2.02c-.4805 0-.87.3895-.87.87s.3895.87.87.87h2.02c.4142 0 .75.3358.75.75z" fill="#354793" stroke="#354793" stroke-width=".5"/></svg>

<svg width="80" height="80" viewBox="0 0 80 80" fill="none" xmlns="http://www.w3.org/2000/svg">
<circle cx="40" cy="40" r="40" fill="#FFE01B"/>
<rect x="21.5" y="17.5" width="37" height="41" rx="8.5" fill="#FFE01B" stroke="#354793" stroke-width="3"/>
<rect x="27" y="26" width="26" height="3" rx="1.5" fill="#354793"/>
<rect x="27" y="46" width="26" height="3" rx="1.5" fill="#354793"/>
<rect x="27" y="36" width="26" height="3" rx="1.5" fill="#354793"/>
<circle cx="56" cy="55" r="11.5" fill="#FFE01B" stroke="#354793" stroke-width="3"/>
<path d="M55.39 56.14V58.39C55.39 58.8871 55.7929 59.29 56.29 59.29C56.7871 59.29 57.19 58.8871 57.19 58.39V56.14C57.19 55.7258 57.5258 55.39 57.94 55.39H59.96C60.4405 55.39 60.83 55.0005 60.83 54.52C60.83 54.0395 60.4405 53.65 59.96 53.65H57.94C57.5258 53.65 57.19 53.3142 57.19 52.9V50.65C57.19 50.1529 56.7871 49.75 56.29 49.75C55.7929 49.75 55.39 50.1529 55.39 50.65V52.9C55.39 53.3142 55.0542 53.65 54.64 53.65H52.62C52.1395 53.65 51.75 54.0395 51.75 54.52C51.75 55.0005 52.1395 55.39 52.62 55.39H54.64C55.0542 55.39 55.39 55.7258 55.39 56.14Z" fill="#354793" stroke="#354793" stroke-width="0.5"/>
</svg>
